X:5702
T:Gan Ainm
R:Reel
S:
H:
N:
D:Probably from a Milltown session
Z:Adrian Scahill
M:4/4
L:1/8
K:D
d2fd BAFB|AdBA FADA|F2Bc defe|gfed cABc|\
d2dA BAFB|AdBA FED2|FAdf fggf|edce d4:||\
fgec dBcA|dBcA BAFA|cAFA cAFA|Bded cdeg|\
fgec dBcA|dBcA BAFA|1 dBGB dfed|cA (3AAA A4:|2 d2Bc dfed|cABc d4||
